packages/katcn/src/icons/svg/moon.svg

<svg width="24" height="25" viewBox="0 0 24 25" fill="none" xmlns="http://www.w3.org/2000/svg">
<path d="M12.3 22.968C9.59999 22.968 6.99998 21.968 4.99998 19.968C0.999985 15.968 0.999985 9.66796 4.89998 5.76796C6.29998 4.26796 8.19999 3.26796 10.3 2.96796C10.7 2.86796 11.1 3.06796 11.3 3.46796C11.5 3.86796 11.5 4.26796 11.2 4.56796C8.99998 7.06796 9.19999 10.968 11.6 13.368C14 15.768 17.8 15.968 20.3 13.768C20.6 13.468 21.1 13.468 21.4 13.668C21.8 13.868 22 14.268 21.9 14.668C21.6 16.768 20.6 18.568 19.2 20.068C17.3 21.968 14.8 22.968 12.3 22.968ZM8.19998 5.66796C7.49998 6.06796 6.79998 6.46796 6.19998 7.06796C3.09998 10.168 3.19998 15.268 6.29998 18.468C9.49998 21.668 14.6 21.668 17.7 18.568C18.3 17.968 18.8 17.368 19.1 16.568C16.1 17.768 12.5 17.068 9.99998 14.568C7.79998 12.368 7.09998 8.76796 8.19998 5.66796Z" fill="black"/>
</svg>

<svg xmlns="http://www.w3.org/2000/svg" fill="none" viewBox="0 0 24 25"><path fill="#000" d="M12.3 22.968c-2.7 0-5.3-1-7.3-3-4-4-4-10.3-.1-14.2 1.4-1.5 3.3-2.5 5.4-2.8.4-.1.8.1 1 .5s.2.8-.1 1.1c-2.2 2.5-2 6.4.4 8.8s6.2 2.6 8.7.4c.3-.3.8-.3 1.1-.1.4.2.6.6.5 1-.3 2.1-1.3 3.9-2.7 5.4-1.9 1.9-4.4 2.9-6.9 2.9m-4.1-17.3c-.7.4-1.4.8-2 1.4-3.1 3.1-3 8.2.1 11.4 3.2 3.2 8.3 3.2 11.4.1.6-.6 1.1-1.2 1.4-2-3 1.2-6.6.5-9.1-2-2.2-2.2-2.9-5.8-1.8-8.9"/></svg>
